app/assets/images/remix_icon/user/user-settings-line.svg

<svg viewBox="0 0 24 24" xmlns="http://www.w3.org/2000/svg"><path d="M12 14V16C8.68629 16 6 18.6863 6 22H4C4 17.5817 7.58172 14 12 14ZM12 13C8.685 13 6 10.315 6 7C6 3.685 8.685 1 12 1C15.315 1 18 3.685 18 7C18 10.315 15.315 13 12 13ZM12 11C14.21 11 16 9.21 16 7C16 4.79 14.21 3 12 3C9.79 3 8 4.79 8 7C8 9.21 9.79 11 12 11ZM14.5946 18.8115C14.5327 18.5511 14.5 18.2794 14.5 18C14.5 17.7207 14.5327 17.449 14.5945 17.1886L13.6029 16.6161L14.6029 14.884L15.5952 15.4569C15.9883 15.0851 16.4676 14.8034 17 14.6449V13.5H19V14.6449C19.5324 14.8034 20.0116 15.0851 20.4047 15.4569L21.3971 14.8839L22.3972 16.616L21.4055 17.1885C21.4673 17.449 21.5 17.7207 21.5 18C21.5 18.2793 21.4673 18.551 21.4055 18.8114L22.3972 19.3839L21.3972 21.116L20.4048 20.543C20.0117 20.9149 19.5325 21.1966 19.0001 21.355V22.5H17.0001V21.3551C16.4677 21.1967 15.9884 20.915 15.5953 20.5431L14.603 21.1161L13.6029 19.384L14.5946 18.8115ZM18 19.5C18.8284 19.5 19.5 18.8284 19.5 18C19.5 17.1716 18.8284 16.5 18 16.5C17.1716 16.5 16.5 17.1716 16.5 18C16.5 18.8284 17.1716 19.5 18 19.5Z"/></svg>

<svg xmlns="http://www.w3.org/2000/svg" viewBox="0 0 24 24">
    <g>
        <path fill="none" d="M0 0h24v24H0z"/>
        <path d="M12 14v2a6 6 0 0 0-6 6H4a8 8 0 0 1 8-8zm0-1c-3.315 0-6-2.685-6-6s2.685-6 6-6 6 2.685 6 6-2.685 6-6 6zm0-2c2.21 0 4-1.79 4-4s-1.79-4-4-4-4 1.79-4 4 1.79 4 4 4zm2.595 7.812a3.51 3.51 0 0 1 0-1.623l-.992-.573 1-1.732.992.573A3.496 3.496 0 0 1 17 14.645V13.5h2v1.145c.532.158 1.012.44 1.405.812l.992-.573 1 1.732-.992.573a3.51 3.51 0 0 1 0 1.622l.992.573-1 1.732-.992-.573a3.496 3.496 0 0 1-1.405.812V22.5h-2v-1.145a3.496 3.496 0 0 1-1.405-.812l-.992.573-1-1.732.992-.572zM18 19.5a1.5 1.5 0 1 0 0-3 1.5 1.5 0 0 0 0 3z"/>
    </g>
</svg>
